X: 311
M: 2/4
L: 1/16
K: G
|:\
|:\
"2.F."D4D4 | D6(AB) | c2A2c2A2 | D6(GA) |\
|:\
g4g4 | g6"2.F."(Bc) | d2B2e2c2 | d6(Bc) |\
d2B2e2c2 | d2B2e2c2 | B2G2 D2(FA) | G4G4 :|
|:\
"2.F."c4c4 | c6(AB) | c2A2c2A2 | B6(GA) |\
|:\
"2.F."GFGA BABc | d2D2d2D2 | GFGA BABc | d4D4 :|\
"1.F."c2c4BA | GFGA GABG |
c2c4BA | GFGA G4 |\
c2c4BA | GFGA GABG |  c2c4BA | HG8 |]

